X: 21701
T: Kilty Town
R: reel
M: 4/4
K: Gmajor
|:B ~G3 d2cA|BdcA B~G3|A ~D3 c ~D3|B~D3A2Ac|
B ~G3 d2 cA|BdcA B ~G3|(3EFG AB cdeg|1 fdcA G2 dc:|2 fdcA G2 Bd||
|:g2 gf e~B3|eBgB e ~B3|dega bgag|eaag agef|
g2 bg faaf|~e3f edBd|c2 ec B2 dB|A2 AB cdef:|
|:g2 gd B ~G3|(3EFG AB c2BA|G ~B3 GABc|d2 AG FA DA|
G2 BG F2 AF|~e3f edBd|c2 ec B2 dB|1 ~A3 B cdef:|2 ~A3 B cAFA||

